X:1
T: Saint Anne's Reel (aka Sainte Agathe; R-6)
I: Saint Anne's ReelR-6DreelSet 18
I: Sainte AgatheR-6DreelSet 18
M: C|
R: reel
K: D
A2| "D"f2fg fedB| A2FG AFAd| "G"BGGF G2FG| "D"BAAF A2de|
    "D"f2fg fedB| A2FG AFAd| "G"BGBd "A"cAce| "D"dfec d2 :|
|:\
ag| "D"fdfa fdfa| "A"aggf g2gf| edcB ABce| "D"baa^g a2 a=g|
    "D"fdfa fdfa| "A"aggf g2gf| edcB ABce| "D"fdec d2 :|
